src/lib/packages/icons/src/assets/filled/sticky-note-circle.svg

<svg width="24" height="24" viewBox="0 0 24 24" fill="none" xmlns="http://www.w3.org/2000/svg">
<path d="M22 11.8199C22 12.3799 21.93 12.94 21.77 13.47H18.6699C15.7999 13.47 13.47 15.8 13.47 18.67V21.77C12.94 21.93 12.3801 22 11.8201 22C6.39007 22 2 17.6101 2 12.1801V11.8199C2 6.38995 6.39007 2 11.8201 2H12.1799C17.6099 2 22 6.38995 22 11.8199ZM14.97 18.67V21.17C15.49 20.89 15.9699 20.53 16.3999 20.1L20.1001 16.4C20.5301 15.97 20.8899 15.49 21.1699 14.97H18.6699C16.6299 14.97 14.97 16.63 14.97 18.67Z" fill="currentColor"/>
</svg>

<svg xmlns="http://www.w3.org/2000/svg" width="24" height="24" fill="none"><path fill="currentColor" d="M22 11.82c0 .56-.07 1.12-.23 1.65h-3.1c-2.87 0-5.2 2.33-5.2 5.2v3.1c-.53.16-1.09.23-1.65.23C6.39 22 2 17.61 2 12.18v-.36C2 6.39 6.39 2 11.82 2h.36C17.61 2 22 6.39 22 11.82Zm-7.03 6.85v2.5c.52-.28 1-.64 1.43-1.07l3.7-3.7c.43-.43.79-.91 1.07-1.43h-2.5c-2.04 0-3.7 1.66-3.7 3.7Z"/></svg>
